!!!COM:	Pierre de la Rue
**kern	**kern
*part2	*part1
*staff2	*staff1
*clefGv2	*clefG2
*k[]	*k[]
*M2/1	*M2/1
=1-	=1-
[0d	1r
.	1d
=2	=2
0d]	4d
.	4e
.	4f
.	4g
.	2a
.	2d
=3	=3
0d	2.f
.	4g
.	2a
.	2b
=4	=4
1A	[0cc
2r	.
[2A	.
=5	=5
4A]	0cc]
4B	.
4c	.
4d	.
2e	.
2A	.
=6	=6
2.c	0cc
4d	.
2e	.
2f	.
=7	=7
1.g	1.b
4f	4a
4e	4g
=8	=8
2f	2a
1e	1g
[2e	[2cc
=9	=9
2e]	2cc]
4d	1b
4c	.
2d	.
2e	4a
.	4g
=10	=10
1f	1a
2r	1d
[2f	.
=11	=11
2f]	2r
1e	1cc
4d	[2b
4c	.
=12	=12
2d	2b]
2c	4a
.	4g
1f	2a
.	[2d
=13	=13
2r	4d]
.	4e
1f	4f
.	4g
.	2a
[2e	2b
=14	=14
2e]	2cc
4d	1b
4c	.
2d	.
2c	4a
.	4g
=15	=15
2.f	2a
.	2.d
4e	.
2d	.
.	4e
2c	4f
.	4g
=16	=16
2f	2a
1e	2b
.	2.cc
4d	.
4c	4b
=17	=17
2d	4a
.	4g
2G	1g
1A	.
.	2f
=18	=18
[0G	0g
=19	=19
0G]	1r
.	1g
=20	=20
0r	2.e
.	4f
.	1d
=21	=21
1g	1c
2.e	2r
.	2g
4f	.
=22	=22
1d	2a
.	2b
2c	1e
2g	.
=23	=23
2.e	2r
.	2g
4f	.
1d	2a
.	2b
=24	=24
1c	4e
.	4f
.	4g
.	4a
2r	2f
2c	2e
=25	=25
2d	2r
2e	2b
1A	2cc
.	4b
.	4a
=26	=26
2r	2g
2c	2a
2d	2r
2e	2b
=27	=27
3%2A	2.cc
3c	.
.	4a
3d	2b
3%2e	.
.	[2cc
=28	=28
2A	4cc]
.	4a
2e	4b
.	4cc
4f	2dd
4e	.
4d	[2cc
4c	.
=29	=29
1d	2cc]
.	2b
[1c	1cc
=30	=30
1c]	2r
.	2g
2r	2.a
2A	.
.	4cc
=31	=31
2G	2b
2.A	1a
4c	.
2B	2g
=32	=32
1A	2.a
.	4cc
2G	2b
[2A	[2a
=33	=33
4A]	2a]
4c	.
2B	2g
2A	2f
[2c	2e
==	==
*-	*-
